X: 592
T: Varshaver Freylekhs
T: Warsaw Freylach
M: 2/4
L: 1/8
B: Henry Sapoznik "The Compleat Klezmer" 1987
K: D exp ^G
| "Dm"A, D2 F | AD "Gm"BD | "Dm"AD "Ddim"GD | "Dm"(3FED A2 \
| A,D2F | GA Bc | (3Bcd (3cBA | (3AGF "A7"A2 |
| "Dm"A, D2 F | AD "Gm"BD | "Dm"AD "Ddim"GD | "Dm"(3FED A2 \
| "A7"A,B, ^CD | EF GA | (3AGF (3FED | "Dm"D4 |]
[| "Dm"B/d/ c2 B | d2 (3cBA | G/B/ A2 G | (3AGF (3FED \
| "Dm"B/d/ c2 B | d2 (3cBA | G/B/ A3 | d4 |
| "Dm"B/d/ c2 B | d2 (3cBA | G/B/ A2 G | (3AGF (3FED \
| "A7"A,B, ^CD | EF GA | (3AGF (3FED | "Dm"D4 |]
K:D
|: "D"D F2 A | GF A2 | A>B (3=cBA | GF A2 \
| D F2 A | GF A2 | "A7"E>F (3GFE | "D"D4 :|
